images/51055307.svg

<?xml version="1.0" encoding="UTF-8"?>
<svg xmlns="http://www.w3.org/2000/svg" xmlns:xlink="http://www.w3.org/1999/xlink" width="300pt" height="300pt" viewBox="0 0 300 300" version="1.1">
<defs>
<g>
<symbol overflow="visible" id="glyph0-0">
<path style="stroke:none;" d="M 0.453125 1.59375 L 0.453125 -6.34375 L 4.953125 -6.34375 L 4.953125 1.59375 Z M 0.953125 1.09375 L 4.453125 1.09375 L 4.453125 -5.84375 L 0.953125 -5.84375 Z M 0.953125 1.09375 "/>
</symbol>
<symbol overflow="visible" id="glyph0-1">
<path style="stroke:none;" d="M 3.546875 -5.953125 C 2.898438 -5.953125 2.382812 -5.710938 2 -5.234375 C 1.625 -4.753906 1.4375 -4.101562 1.4375 -3.28125 C 1.4375 -2.445312 1.625 -1.789062 2 -1.3125 C 2.382812 -0.832031 2.898438 -0.59375 3.546875 -0.59375 C 4.191406 -0.59375 4.703125 -0.832031 5.078125 -1.3125 C 5.453125 -1.789062 5.640625 -2.445312 5.640625 -3.28125 C 5.640625 -4.101562 5.453125 -4.753906 5.078125 -5.234375 C 4.703125 -5.710938 4.191406 -5.953125 3.546875 -5.953125 Z M 3.546875 -6.6875 C 4.460938 -6.6875 5.195312 -6.375 5.75 -5.75 C 6.300781 -5.132812 6.578125 -4.3125 6.578125 -3.28125 C 6.578125 -2.238281 6.300781 -1.410156 5.75 -0.796875 C 5.195312 -0.179688 4.460938 0.125 3.546875 0.125 C 2.617188 0.125 1.878906 -0.179688 1.328125 -0.796875 C 0.773438 -1.410156 0.5 -2.238281 0.5 -3.28125 C 0.5 -4.3125 0.773438 -5.132812 1.328125 -5.75 C 1.878906 -6.375 2.617188 -6.6875 3.546875 -6.6875 Z M 3.546875 -6.6875 "/>
</symbol>
<symbol overflow="visible" id="glyph0-2">
<path style="stroke:none;" d="M 0.890625 -6.5625 L 1.765625 -6.5625 L 1.765625 -3.875 L 5 -3.875 L 5 -6.5625 L 5.890625 -6.5625 L 5.890625 0 L 5 0 L 5 -3.125 L 1.765625 -3.125 L 1.765625 0 L 0.890625 0 Z M 0.890625 -6.5625 "/>
</symbol>
<symbol overflow="visible" id="glyph0-3">
<path style="stroke:none;" d="M 0.890625 -6.5625 L 2.078125 -6.5625 L 4.984375 -1.078125 L 4.984375 -6.5625 L 5.84375 -6.5625 L 5.84375 0 L 4.65625 0 L 1.75 -5.484375 L 1.75 0 L 0.890625 0 Z M 0.890625 -6.5625 "/>
</symbol>
<symbol overflow="visible" id="glyph1-0">
<path style="stroke:none;" d="M 0.40625 1.421875 L 0.40625 -5.640625 L 4.40625 -5.640625 L 4.40625 1.421875 Z M 0.84375 0.96875 L 3.953125 0.96875 L 3.953125 -5.1875 L 0.84375 -5.1875 Z M 0.84375 0.96875 "/>
</symbol>
<symbol overflow="visible" id="glyph1-1">
<path style="stroke:none;" d="M 3.6875 -5.015625 L 3.6875 -2.84375 L 5.859375 -2.84375 L 5.859375 -2.171875 L 3.6875 -2.171875 L 3.6875 0 L 3.03125 0 L 3.03125 -2.171875 L 0.84375 -2.171875 L 0.84375 -2.84375 L 3.03125 -2.84375 L 3.03125 -5.015625 Z M 3.6875 -5.015625 "/>
</symbol>
<symbol overflow="visible" id="glyph1-2">
<path style="stroke:none;" d="M 3.25 -3.140625 C 3.625 -3.066406 3.914062 -2.898438 4.125 -2.640625 C 4.34375 -2.390625 4.453125 -2.078125 4.453125 -1.703125 C 4.453125 -1.117188 4.253906 -0.671875 3.859375 -0.359375 C 3.460938 -0.046875 2.898438 0.109375 2.171875 0.109375 C 1.921875 0.109375 1.664062 0.0820312 1.40625 0.03125 C 1.15625 -0.0078125 0.890625 -0.078125 0.609375 -0.171875 L 0.609375 -0.9375 C 0.828125 -0.8125 1.066406 -0.710938 1.328125 -0.640625 C 1.585938 -0.578125 1.859375 -0.546875 2.140625 -0.546875 C 2.640625 -0.546875 3.019531 -0.644531 3.28125 -0.84375 C 3.539062 -1.039062 3.671875 -1.328125 3.671875 -1.703125 C 3.671875 -2.046875 3.546875 -2.3125 3.296875 -2.5 C 3.054688 -2.695312 2.722656 -2.796875 2.296875 -2.796875 L 1.625 -2.796875 L 1.625 -3.4375 L 2.328125 -3.4375 C 2.710938 -3.4375 3.007812 -3.515625 3.21875 -3.671875 C 3.425781 -3.828125 3.53125 -4.050781 3.53125 -4.34375 C 3.53125 -4.644531 3.421875 -4.875 3.203125 -5.03125 C 2.992188 -5.195312 2.691406 -5.28125 2.296875 -5.28125 C 2.078125 -5.28125 1.84375 -5.253906 1.59375 -5.203125 C 1.351562 -5.160156 1.082031 -5.085938 0.78125 -4.984375 L 0.78125 -5.6875 C 1.082031 -5.769531 1.363281 -5.832031 1.625 -5.875 C 1.882812 -5.914062 2.132812 -5.9375 2.375 -5.9375 C 2.96875 -5.9375 3.4375 -5.800781 3.78125 -5.53125 C 4.132812 -5.257812 4.3125 -4.890625 4.3125 -4.421875 C 4.3125 -4.097656 4.21875 -3.828125 4.03125 -3.609375 C 3.851562 -3.390625 3.59375 -3.234375 3.25 -3.140625 Z M 3.25 -3.140625 "/>
</symbol>
</g>
</defs>
<g id="surface22161">
<rect x="0" y="0" width="300" height="300" style="fill:rgb(100%,100%,100%);fill-opacity:1;stroke:none;"/>
<path style="fill:none;stroke-width:1.2;stroke-linecap:butt;stroke-linejoin:miter;stroke:rgb(100%,0%,0%);stroke-opacity:1;stroke-miterlimit:10;" d="M 35.25 111.554688 L 39.144531 100.078125 "/>
<path style="fill:none;stroke-width:1.2;stroke-linecap:butt;stroke-linejoin:miter;stroke:rgb(0%,0%,0%);stroke-opacity:1;stroke-miterlimit:10;" d="M 39.144531 100.078125 L 43.035156 88.601562 "/>
<path style="fill:none;stroke-width:1.2;stroke-linecap:butt;stroke-linejoin:miter;stroke:rgb(100%,0%,0%);stroke-opacity:1;stroke-miterlimit:10;" d="M 35.25 111.554688 L 43.242188 120.660156 "/>
<path style="fill:none;stroke-width:1.2;stroke-linecap:butt;stroke-linejoin:miter;stroke:rgb(0%,0%,0%);stroke-opacity:1;stroke-miterlimit:10;" d="M 43.242188 120.660156 L 51.230469 129.769531 "/>
<path style=" stroke:none;fill-rule:nonzero;fill:rgb(100%,100%,100%);fill-opacity:1;" d="M 31.25 106.054688 L 39.25 106.054688 L 39.25 117.054688 L 31.25 117.054688 Z M 31.25 106.054688 "/>
<g style="fill:rgb(100%,0%,0%);fill-opacity:1;">
  <use xlink:href="#glyph0-1" x="31.25" y="114.717773"/>
</g>
<path style="fill:none;stroke-width:1.2;stroke-linecap:butt;stroke-linejoin:miter;stroke:rgb(0%,0%,0%);stroke-opacity:1;stroke-miterlimit:10;" d="M 51.230469 129.769531 L 75 125.039062 "/>
<path style="fill:none;stroke-width:1.2;stroke-linecap:butt;stroke-linejoin:miter;stroke:rgb(0%,0%,0%);stroke-opacity:1;stroke-miterlimit:10;" d="M 54.722656 134.890625 L 73.738281 131.105469 "/>
<path style="fill:none;stroke-width:1.2;stroke-linecap:butt;stroke-linejoin:miter;stroke:rgb(0%,0%,0%);stroke-opacity:1;stroke-miterlimit:10;" d="M 43.445312 152.722656 L 51.230469 129.769531 "/>
<path style="fill:none;stroke-width:1.2;stroke-linecap:butt;stroke-linejoin:miter;stroke:rgb(0%,0%,0%);stroke-opacity:1;stroke-miterlimit:10;" d="M 75 125.039062 L 90.984375 143.257812 "/>
<path style="fill:none;stroke-width:1.2;stroke-linecap:butt;stroke-linejoin:miter;stroke:rgb(0%,0%,0%);stroke-opacity:1;stroke-miterlimit:10;" d="M 90.984375 143.257812 L 83.195312 166.207031 "/>
<path style="fill:none;stroke-width:1.2;stroke-linecap:butt;stroke-linejoin:miter;stroke:rgb(0%,0%,0%);stroke-opacity:1;stroke-miterlimit:10;" d="M 84.804688 143.71875 L 78.574219 162.082031 "/>
<path style="fill:none;stroke-width:1.2;stroke-linecap:butt;stroke-linejoin:miter;stroke:rgb(0%,0%,0%);stroke-opacity:1;stroke-miterlimit:10;" d="M 83.195312 166.207031 L 59.429688 170.9375 "/>
<path style="fill:none;stroke-width:1.2;stroke-linecap:butt;stroke-linejoin:miter;stroke:rgb(0%,0%,0%);stroke-opacity:1;stroke-miterlimit:10;" d="M 83.195312 166.207031 L 99.179688 184.425781 "/>
<path style="fill:none;stroke-width:1.2;stroke-linecap:butt;stroke-linejoin:miter;stroke:rgb(0%,0%,0%);stroke-opacity:1;stroke-miterlimit:10;" d="M 59.429688 170.9375 L 43.445312 152.722656 "/>
<path style="fill:none;stroke-width:1.2;stroke-linecap:butt;stroke-linejoin:miter;stroke:rgb(0%,0%,0%);stroke-opacity:1;stroke-miterlimit:10;" d="M 62.117188 165.355469 L 49.332031 150.78125 "/>
<path style="fill:none;stroke-width:1.2;stroke-linecap:butt;stroke-linejoin:miter;stroke:rgb(0%,0%,0%);stroke-opacity:1;stroke-miterlimit:10;" d="M 99.179688 184.425781 L 95.285156 195.898438 "/>
<path style="fill:none;stroke-width:1.2;stroke-linecap:butt;stroke-linejoin:miter;stroke:rgb(0%,0%,100%);stroke-opacity:1;stroke-miterlimit:10;" d="M 95.285156 195.898438 L 91.394531 207.375 "/>
<path style="fill:none;stroke-width:1.2;stroke-linecap:butt;stroke-linejoin:miter;stroke:rgb(0%,0%,0%);stroke-opacity:1;stroke-miterlimit:10;" d="M 99.179688 184.425781 L 122.949219 179.691406 "/>
<path style=" stroke:none;fill-rule:nonzero;fill:rgb(100%,100%,100%);fill-opacity:1;" d="M 65.394531 197.875 L 91.394531 197.875 L 91.394531 216.875 L 65.394531 216.875 Z M 65.394531 197.875 "/>
<g style="fill:rgb(0%,0%,100%);fill-opacity:1;">
  <use xlink:href="#glyph1-1" x="65.394531" y="205.09375"/>
</g>
<g style="fill:rgb(0%,0%,100%);fill-opacity:1;">
  <use xlink:href="#glyph0-2" x="71.914062" y="209.976562"/>
</g>
<g style="fill:rgb(0%,0%,100%);fill-opacity:1;">
  <use xlink:href="#glyph1-2" x="78.928711" y="214.859375"/>
</g>
<g style="fill:rgb(0%,0%,100%);fill-opacity:1;">
  <use xlink:href="#glyph0-3" x="83.878906" y="209.976562"/>
</g>
<path style="fill:none;stroke-width:1.2;stroke-linecap:butt;stroke-linejoin:miter;stroke:rgb(0%,0%,0%);stroke-opacity:1;stroke-miterlimit:10;" d="M 122.949219 179.691406 L 130.9375 188.800781 "/>
<path style="fill:none;stroke-width:1.2;stroke-linecap:butt;stroke-linejoin:miter;stroke:rgb(0%,0%,100%);stroke-opacity:1;stroke-miterlimit:10;" d="M 130.9375 188.800781 L 138.929688 197.910156 "/>
<path style="fill:none;stroke-width:1.2;stroke-linecap:butt;stroke-linejoin:miter;stroke:rgb(0%,0%,0%);stroke-opacity:1;stroke-miterlimit:10;" d="M 122.949219 179.691406 L 126.839844 168.21875 "/>
<path style="fill:none;stroke-width:1.2;stroke-linecap:butt;stroke-linejoin:miter;stroke:rgb(0%,0%,100%);stroke-opacity:1;stroke-miterlimit:10;" d="M 126.839844 168.21875 L 130.734375 156.742188 "/>
<path style="fill:none;stroke-width:1.2;stroke-linecap:butt;stroke-linejoin:miter;stroke:rgb(0%,0%,0%);stroke-opacity:1;stroke-miterlimit:10;" d="M 129.125 179.230469 L 132.242188 170.050781 "/>
<path style="fill:none;stroke-width:1.2;stroke-linecap:butt;stroke-linejoin:miter;stroke:rgb(0%,0%,100%);stroke-opacity:1;stroke-miterlimit:10;" d="M 132.242188 170.050781 L 135.355469 160.871094 "/>
<path style="fill:none;stroke-width:1.2;stroke-linecap:butt;stroke-linejoin:miter;stroke:rgb(0%,0%,100%);stroke-opacity:1;stroke-miterlimit:10;" d="M 138.929688 197.910156 L 150.816406 195.546875 "/>
<path style="fill:none;stroke-width:1.2;stroke-linecap:butt;stroke-linejoin:miter;stroke:rgb(0%,0%,0%);stroke-opacity:1;stroke-miterlimit:10;" d="M 150.816406 195.546875 L 162.699219 193.179688 "/>
<path style=" stroke:none;fill-rule:nonzero;fill:rgb(100%,100%,100%);fill-opacity:1;" d="M 131.929688 192.410156 L 145.929688 192.410156 L 145.929688 203.410156 L 131.929688 203.410156 Z M 131.929688 192.410156 "/>
<g style="fill:rgb(0%,0%,100%);fill-opacity:1;">
  <use xlink:href="#glyph0-3" x="131.929688" y="201.073242"/>
  <use xlink:href="#glyph0-2" x="138.907227" y="201.073242"/>
</g>
<path style="fill:none;stroke-width:1.2;stroke-linecap:butt;stroke-linejoin:miter;stroke:rgb(0%,0%,0%);stroke-opacity:1;stroke-miterlimit:10;" d="M 160.554688 195.058594 L 168.546875 204.167969 "/>
<path style="fill:none;stroke-width:1.2;stroke-linecap:butt;stroke-linejoin:miter;stroke:rgb(100%,0%,0%);stroke-opacity:1;stroke-miterlimit:10;" d="M 168.546875 204.167969 L 176.539062 213.277344 "/>
<path style="fill:none;stroke-width:1.2;stroke-linecap:butt;stroke-linejoin:miter;stroke:rgb(0%,0%,0%);stroke-opacity:1;stroke-miterlimit:10;" d="M 164.84375 191.300781 L 172.832031 200.40625 "/>
<path style="fill:none;stroke-width:1.2;stroke-linecap:butt;stroke-linejoin:miter;stroke:rgb(100%,0%,0%);stroke-opacity:1;stroke-miterlimit:10;" d="M 172.832031 200.40625 L 180.824219 209.515625 "/>
<path style="fill:none;stroke-width:1.2;stroke-linecap:butt;stroke-linejoin:miter;stroke:rgb(0%,0%,0%);stroke-opacity:1;stroke-miterlimit:10;" d="M 162.699219 193.179688 L 170.484375 170.230469 "/>
<path style=" stroke:none;fill-rule:nonzero;fill:rgb(100%,100%,100%);fill-opacity:1;" d="M 174.679688 205.898438 L 182.679688 205.898438 L 182.679688 216.898438 L 174.679688 216.898438 Z M 174.679688 205.898438 "/>
<g style="fill:rgb(100%,0%,0%);fill-opacity:1;">
  <use xlink:href="#glyph0-1" x="174.679688" y="214.561523"/>
</g>
<path style="fill:none;stroke-width:1.2;stroke-linecap:butt;stroke-linejoin:miter;stroke:rgb(0%,0%,0%);stroke-opacity:1;stroke-miterlimit:10;" d="M 170.484375 170.230469 L 194.253906 165.496094 "/>
<path style="fill:none;stroke-width:1.2;stroke-linecap:butt;stroke-linejoin:miter;stroke:rgb(0%,0%,0%);stroke-opacity:1;stroke-miterlimit:10;" d="M 171.75 164.164062 L 190.761719 160.378906 "/>
<path style="fill:none;stroke-width:1.2;stroke-linecap:butt;stroke-linejoin:miter;stroke:rgb(0%,0%,0%);stroke-opacity:1;stroke-miterlimit:10;" d="M 154.503906 152.011719 L 170.484375 170.230469 "/>
<path style="fill:none;stroke-width:1.2;stroke-linecap:butt;stroke-linejoin:miter;stroke:rgb(0%,0%,0%);stroke-opacity:1;stroke-miterlimit:10;" d="M 194.253906 165.496094 L 202.039062 142.546875 "/>
<path style="fill:none;stroke-width:1.2;stroke-linecap:butt;stroke-linejoin:miter;stroke:rgb(0%,0%,0%);stroke-opacity:1;stroke-miterlimit:10;" d="M 202.039062 142.546875 L 186.058594 124.328125 "/>
<path style="fill:none;stroke-width:1.2;stroke-linecap:butt;stroke-linejoin:miter;stroke:rgb(0%,0%,0%);stroke-opacity:1;stroke-miterlimit:10;" d="M 196.15625 144.484375 L 183.367188 129.910156 "/>
<path style="fill:none;stroke-width:1.2;stroke-linecap:butt;stroke-linejoin:miter;stroke:rgb(0%,0%,0%);stroke-opacity:1;stroke-miterlimit:10;" d="M 202.039062 142.546875 L 225.808594 137.816406 "/>
<path style="fill:none;stroke-width:1.2;stroke-linecap:butt;stroke-linejoin:miter;stroke:rgb(0%,0%,0%);stroke-opacity:1;stroke-miterlimit:10;" d="M 186.058594 124.328125 L 162.289062 129.0625 "/>
<path style="fill:none;stroke-width:1.2;stroke-linecap:butt;stroke-linejoin:miter;stroke:rgb(0%,0%,0%);stroke-opacity:1;stroke-miterlimit:10;" d="M 162.289062 129.0625 L 154.503906 152.011719 "/>
<path style="fill:none;stroke-width:1.2;stroke-linecap:butt;stroke-linejoin:miter;stroke:rgb(0%,0%,0%);stroke-opacity:1;stroke-miterlimit:10;" d="M 166.910156 133.1875 L 160.679688 151.546875 "/>
<path style="fill:none;stroke-width:1.2;stroke-linecap:butt;stroke-linejoin:miter;stroke:rgb(0%,0%,0%);stroke-opacity:1;stroke-miterlimit:10;" d="M 154.503906 152.011719 L 142.617188 154.378906 "/>
<path style="fill:none;stroke-width:1.2;stroke-linecap:butt;stroke-linejoin:miter;stroke:rgb(0%,0%,100%);stroke-opacity:1;stroke-miterlimit:10;" d="M 142.617188 154.378906 L 130.734375 156.742188 "/>
<path style=" stroke:none;fill-rule:nonzero;fill:rgb(100%,100%,100%);fill-opacity:1;" d="M 127.734375 151.242188 L 134.734375 151.242188 L 134.734375 162.242188 L 127.734375 162.242188 Z M 127.734375 151.242188 "/>
<g style="fill:rgb(0%,0%,100%);fill-opacity:1;">
  <use xlink:href="#glyph0-3" x="127.734375" y="159.905273"/>
</g>
<path style="fill:none;stroke-width:1.2;stroke-linecap:butt;stroke-linejoin:miter;stroke:rgb(0%,0%,0%);stroke-opacity:1;stroke-miterlimit:10;" d="M 225.808594 137.816406 L 235.949219 115.804688 "/>
<path style="fill:none;stroke-width:1.2;stroke-linecap:butt;stroke-linejoin:miter;stroke:rgb(0%,0%,0%);stroke-opacity:1;stroke-miterlimit:10;" d="M 243.605469 154.261719 L 225.808594 137.816406 "/>
<path style="fill:none;stroke-width:1.2;stroke-linecap:butt;stroke-linejoin:miter;stroke:rgb(0%,0%,0%);stroke-opacity:1;stroke-miterlimit:10;" d="M 245.695312 148.429688 L 231.457031 135.269531 "/>
<path style="fill:none;stroke-width:1.2;stroke-linecap:butt;stroke-linejoin:miter;stroke:rgb(0%,0%,0%);stroke-opacity:1;stroke-miterlimit:10;" d="M 235.949219 115.804688 L 247.984375 117.226562 "/>
<path style="fill:none;stroke-width:1.2;stroke-linecap:butt;stroke-linejoin:miter;stroke:rgb(0%,0%,100%);stroke-opacity:1;stroke-miterlimit:10;" d="M 247.984375 117.226562 L 260.019531 118.648438 "/>
<path style="fill:none;stroke-width:1.2;stroke-linecap:butt;stroke-linejoin:miter;stroke:rgb(0%,0%,0%);stroke-opacity:1;stroke-miterlimit:10;" d="M 237.6875 121.75 L 247.316406 122.890625 "/>
<path style="fill:none;stroke-width:1.2;stroke-linecap:butt;stroke-linejoin:miter;stroke:rgb(0%,0%,100%);stroke-opacity:1;stroke-miterlimit:10;" d="M 247.316406 122.890625 L 256.941406 124.027344 "/>
<path style="fill:none;stroke-width:1.2;stroke-linecap:butt;stroke-linejoin:miter;stroke:rgb(0%,0%,100%);stroke-opacity:1;stroke-miterlimit:10;" d="M 260.019531 118.648438 L 264.75 142.417969 "/>
<path style=" stroke:none;fill-rule:nonzero;fill:rgb(100%,100%,100%);fill-opacity:1;" d="M 257.019531 113.148438 L 264.019531 113.148438 L 264.019531 124.148438 L 257.019531 124.148438 Z M 257.019531 113.148438 "/>
<g style="fill:rgb(0%,0%,100%);fill-opacity:1;">
  <use xlink:href="#glyph0-3" x="257.019531" y="121.811523"/>
</g>
<path style="fill:none;stroke-width:1.2;stroke-linecap:butt;stroke-linejoin:miter;stroke:rgb(0%,0%,100%);stroke-opacity:1;stroke-miterlimit:10;" d="M 264.75 142.417969 L 254.179688 148.339844 "/>
<path style="fill:none;stroke-width:1.2;stroke-linecap:butt;stroke-linejoin:miter;stroke:rgb(0%,0%,0%);stroke-opacity:1;stroke-miterlimit:10;" d="M 254.179688 148.339844 L 243.605469 154.261719 "/>
<path style=" stroke:none;fill-rule:nonzero;fill:rgb(100%,100%,100%);fill-opacity:1;" d="M 257.75 136.917969 L 271.75 136.917969 L 271.75 147.917969 L 257.75 147.917969 Z M 257.75 136.917969 "/>
<g style="fill:rgb(0%,0%,100%);fill-opacity:1;">
  <use xlink:href="#glyph0-3" x="257.75" y="145.581055"/>
  <use xlink:href="#glyph0-2" x="264.727539" y="145.581055"/>
</g>
</g>
</svg>

<svg xmlns="http://www.w3.org/2000/svg" xmlns:xlink="http://www.w3.org/1999/xlink" width="300pt" height="300pt" viewBox="0 0 300 300"><defs><symbol overflow="visible"><path d="M.453 1.594v-7.938h4.5v7.938zm.5-.5h3.5v-6.938h-3.5zm0 0"/></symbol><symbol overflow="visible" id="a"><path d="M3.547-5.953c-.65 0-1.164.242-1.547.72-.375.48-.563 1.13-.563 1.952 0 .835.188 1.49.563 1.967.383.48.898.72 1.547.72.644 0 1.156-.24 1.53-.72.376-.476.564-1.132.564-1.968 0-.822-.187-1.474-.562-1.954-.375-.477-.887-.72-1.53-.72zm0-.734c.914 0 1.648.312 2.203.937.55.617.828 1.438.828 2.47 0 1.042-.277 1.87-.828 2.483-.555.617-1.29.922-2.203.922-.93 0-1.668-.305-2.22-.922C.774-1.41.5-2.237.5-3.28c0-1.033.273-1.853.828-2.47.55-.625 1.29-.938 2.22-.938zm0 0"/></symbol><symbol overflow="visible" id="c"><path d="M.89-6.563h.876v2.688H5v-2.688h.89V0H5v-3.125H1.766V0H.89zm0 0"/></symbol><symbol overflow="visible" id="e"><path d="M.89-6.563H2.08l2.906 5.485v-5.484h.86V0H4.656L1.75-5.484V0H.89zm0 0"/></symbol><symbol overflow="visible"><path d="M.406 1.422V-5.64h4V1.42zM.844.97h3.11v-6.157H.843zm0 0"/></symbol><symbol overflow="visible" id="b"><path d="M3.688-5.016v2.172h2.17v.672H3.69V0H3.03v-2.172H.845v-.672H3.03v-2.172zm0 0"/></symbol><symbol overflow="visible" id="d"><path d="M3.25-3.14c.375.074.664.242.875.5.22.25.328.562.328.937 0 .586-.2 1.03-.594 1.344-.4.313-.962.47-1.688.47-.25 0-.508-.028-.766-.08C1.156-.007.89-.077.61-.17v-.766c.218.125.456.227.718.297.258.062.53.093.813.093.5 0 .88-.098 1.14-.297.26-.195.392-.484.392-.86 0-.343-.125-.61-.375-.796-.242-.195-.574-.297-1-.297h-.672v-.64h.703c.383 0 .68-.08.89-.235.208-.156.313-.38.313-.672 0-.3-.108-.53-.327-.687-.21-.165-.512-.25-.906-.25-.22 0-.453.026-.703.077-.242.043-.512.117-.813.22v-.705c.302-.082.583-.144.845-.187.258-.04.508-.063.75-.063.594 0 1.063.137 1.406.407.353.272.533.64.533 1.108 0 .324-.094.594-.282.813-.178.22-.436.376-.78.47zm0 0"/></symbol></defs><g><path fill="#fff" d="M0 0h300v300H0z"/><path d="M35.25 111.555l3.895-11.477" stroke-width="1.2" stroke="#f00" stroke-miterlimit="10" fill="none"/><path d="M39.145 100.078l3.89-11.476" stroke-width="1.2" stroke="#000" stroke-miterlimit="10" fill="none"/><path d="M35.25 111.555l7.992 9.105" stroke-width="1.2" stroke="#f00" stroke-miterlimit="10" fill="none"/><path d="M43.242 120.66l7.988 9.11" stroke-width="1.2" stroke="#000" stroke-miterlimit="10" fill="none"/><path d="M31.25 106.055h8v11h-8zm0 0" fill="#fff"/><use xlink:href="#a" x="31.25" y="114.718" fill="#f00"/><path d="M51.23 129.77L75 125.04M54.723 134.89l19.015-3.785M43.445 152.723l7.785-22.953M75 125.04l15.984 18.218M90.984 143.258l-7.79 22.95M84.805 143.72l-6.23 18.362M83.195 166.207l-23.765 4.73M83.195 166.207l15.985 18.22M59.43 170.938l-15.985-18.215M62.117 165.355L49.332 150.78M99.18 184.426l-3.895 11.472" stroke-width="1.2" stroke="#000" stroke-miterlimit="10" fill="none"/><path d="M95.285 195.898l-3.89 11.477" stroke-width="1.2" stroke="#00f" stroke-miterlimit="10" fill="none"/><path d="M99.18 184.426l23.77-4.735" stroke-width="1.2" stroke="#000" stroke-miterlimit="10" fill="none"/><path d="M65.395 197.875h26v19h-26zm0 0" fill="#fff"/><use xlink:href="#b" x="65.395" y="205.094" fill="#00f"/><use xlink:href="#c" x="71.914" y="209.977" fill="#00f"/><use xlink:href="#d" x="78.929" y="214.859" fill="#00f"/><use xlink:href="#e" x="83.879" y="209.977" fill="#00f"/><path d="M122.95 179.69l7.987 9.11" stroke-width="1.2" stroke="#000" stroke-miterlimit="10" fill="none"/><path d="M130.938 188.8l7.992 9.11" stroke-width="1.2" stroke="#00f" stroke-miterlimit="10" fill="none"/><path d="M122.95 179.69l3.89-11.47" stroke-width="1.2" stroke="#000" stroke-miterlimit="10" fill="none"/><path d="M126.84 168.22l3.894-11.478" stroke-width="1.2" stroke="#00f" stroke-miterlimit="10" fill="none"/><path d="M129.125 179.23l3.117-9.18" stroke-width="1.2" stroke="#000" stroke-miterlimit="10" fill="none"/><path d="M132.242 170.05l3.113-9.18M138.93 197.91l11.886-2.363" stroke-width="1.2" stroke="#00f" stroke-miterlimit="10" fill="none"/><path d="M150.816 195.547l11.883-2.367" stroke-width="1.2" stroke="#000" stroke-miterlimit="10" fill="none"/><path d="M131.93 192.41h14v11h-14zm0 0" fill="#fff"/><g fill="#00f"><use xlink:href="#e" x="131.93" y="201.073"/><use xlink:href="#c" x="138.907" y="201.073"/></g><path d="M160.555 195.06l7.992 9.108" stroke-width="1.2" stroke="#000" stroke-miterlimit="10" fill="none"/><path d="M168.547 204.168l7.992 9.11" stroke-width="1.2" stroke="#f00" stroke-miterlimit="10" fill="none"/><path d="M164.844 191.3l7.988 9.106" stroke-width="1.2" stroke="#000" stroke-miterlimit="10" fill="none"/><path d="M172.832 200.406l7.992 9.11" stroke-width="1.2" stroke="#f00" stroke-miterlimit="10" fill="none"/><path d="M162.7 193.18l7.784-22.95" stroke-width="1.2" stroke="#000" stroke-miterlimit="10" fill="none"/><path d="M174.68 205.898h8v11h-8zm0 0" fill="#fff"/><use xlink:href="#a" x="174.68" y="214.562" fill="#f00"/><path d="M170.484 170.23l23.77-4.734M171.75 164.164l19.012-3.785M154.504 152.012l15.98 18.218M194.254 165.496l7.785-22.95M202.04 142.547l-15.98-18.22M196.156 144.484l-12.79-14.574M202.04 142.547l23.77-4.73M186.06 124.328l-23.77 4.734M162.29 129.063l-7.786 22.95M166.91 133.188l-6.23 18.36M154.504 152.012l-11.887 2.367" stroke-width="1.2" stroke="#000" stroke-miterlimit="10" fill="none"/><path d="M142.617 154.38l-11.883 2.362" stroke-width="1.2" stroke="#00f" stroke-miterlimit="10" fill="none"/><path d="M127.734 151.242h7v11h-7zm0 0" fill="#fff"/><use xlink:href="#e" x="127.734" y="159.905" fill="#00f"/><path d="M225.81 137.816l10.14-22.01M243.605 154.262l-17.796-16.446M245.695 148.43l-14.238-13.16M235.95 115.805l12.034 1.422" stroke-width="1.2" stroke="#000" stroke-miterlimit="10" fill="none"/><path d="M247.984 117.227l12.036 1.42" stroke-width="1.2" stroke="#00f" stroke-miterlimit="10" fill="none"/><path d="M237.688 121.75l9.628 1.14" stroke-width="1.2" stroke="#000" stroke-miterlimit="10" fill="none"/><path d="M247.316 122.89l9.625 1.137M260.02 118.648l4.73 23.77" stroke-width="1.2" stroke="#00f" stroke-miterlimit="10" fill="none"/><path d="M257.02 113.148h7v11h-7zm0 0" fill="#fff"/><use xlink:href="#e" x="257.02" y="121.812" fill="#00f"/><path d="M264.75 142.418l-10.57 5.922" stroke-width="1.2" stroke="#00f" stroke-miterlimit="10" fill="none"/><path d="M254.18 148.34l-10.575 5.922" stroke-width="1.2" stroke="#000" stroke-miterlimit="10" fill="none"/><path d="M257.75 136.918h14v11h-14zm0 0" fill="#fff"/><g fill="#00f"><use xlink:href="#e" x="257.75" y="145.581"/><use xlink:href="#c" x="264.728" y="145.581"/></g></g></svg>
